X: 41039
T: Trip To Lerwick, The
R: jig
M: 6/8
K: Gmajor
|:d3 edB|d2B ABG|dBG edB|GAB DEF|
GFG AGA|BAB g2f|edB GAB|AGE G2B:|
|:d2c' bag|deg BAG|d2c' bag|ede g3|
DFA GBd|A^ce dfa|B^dc' bag|1 ede g2e:|2 ede g2a||
|:b3 e3|c'bg e3|B^df aba|gfd B3|
b3 e3|c'bg e3|1 DFA GBc|def abc':|2 DFA GBd|ede g2e||

